X:19
T:Hughie Jim Paul's
T:Hughie Jim Paris
C:Joan McDonald Boes
Z:Nigel Gatherer
R:reel
S:Aly Bain (from a TV programme)
M:4/4
L:1/8
K:A
AF | EAAc  BAFA | EAcA  d2cd | eaag     aece | dfec B2 AF |
    EAAc  BAFA | EAcA  d2cd | eaag     aece | dfec A2   :|
ab | c'bag fedc | Aedf e2fg | ae (3eee fedc | dfec B2 ab |
    c'bag fedc | Aedf e2dc | daag     aecA | fcec A2  :|]
